astro/public/img/icons/web-application.svg

<?xml version="1.0" encoding="UTF-8"?>
<svg width="66px" height="66px" viewBox="0 0 66 66" version="1.1" xmlns="http://www.w3.org/2000/svg" xmlns:xlink="http://www.w3.org/1999/xlink">
    <title>web-application</title>
    <defs>
        <circle id="path-1" cx="30" cy="30" r="30"></circle>
        <filter x="-8.3%" y="-6.7%" width="116.7%" height="116.7%" filterUnits="objectBoundingBox" id="filter-2">
            <feMorphology radius="0.5" operator="dilate" in="SourceAlpha" result="shadowSpreadOuter1"></feMorphology>
            <feOffset dx="0" dy="1" in="shadowSpreadOuter1" result="shadowOffsetOuter1"></feOffset>
            <feGaussianBlur stdDeviation="1" in="shadowOffsetOuter1" result="shadowBlurOuter1"></feGaussianBlur>
            <feColorMatrix values="0 0 0 0 0   0 0 0 0 0   0 0 0 0 0  0 0 0 0.11324369 0" type="matrix" in="shadowBlurOuter1"></feColorMatrix>
        </filter>
        <linearGradient x1="14.8160718%" y1="6.5869887%" x2="88.3220997%" y2="85.2494143%" id="linearGradient-3">
            <stop stop-color="#6366F1" offset="0%"></stop>
            <stop stop-color="#000000" offset="100%"></stop>
        </linearGradient>
    </defs>
    <g id="Docs" stroke="none" stroke-width="1" fill="none" fill-rule="evenodd">
        <g id="quickstart-secondary-page" transform="translate(-699.000000, -503.000000)">
            <g id="web-application" transform="translate(702.000000, 505.000000)">
                <g id="Oval-Copy-2">
                    <use fill="black" fill-opacity="1" filter="url(#filter-2)" xlink:href="#path-1"></use>
                    <use fill="#F1F5F9" fill-rule="evenodd" xlink:href="#path-1"></use>
                </g>
                <g id="globe" transform="translate(8.470588, 8.470588)" fill="url(#linearGradient-3)" fill-rule="nonzero">
                    <path d="M40.0917411,10.6623073 C33.6622676,-0.718370568 17.9342703,-3.49453745 7.98083856,4.79745391 C7.47324855,5.28813885 6.64330971,5.67221665 6.63018238,6.46519856 C6.62872379,7.06979251 7.1173521,7.56193782 7.72120918,7.56339819 C7.99688307,7.56193782 8.26234681,7.45679105 8.4636325,7.26694271 C10.7813352,5.11727534 13.6547614,3.58096416 16.6127859,2.80696708 C14.7209921,5.1610865 13.2405213,8.83976319 12.419334,13.320184 C8.42570911,12.397229 5.82066383,11.0755925 4.54293725,10.197909 C4.12286276,9.93942319 3.50879553,9.99345695 3.18061233,10.386297 C-5.67158243,24.2875766 5.08115769,43.3118407 21.545744,43.0562756 C38.0249163,43.2329806 48.4946895,24.6000962 40.0917411,10.6623073 Z M37.6267207,10.7703748 C36.2089693,11.5823415 33.8402159,12.5826962 30.6721541,13.3187237 C29.8509668,8.83246133 28.3661201,5.14940353 26.4699506,2.7952841 C30.947828,3.90224597 35.1777447,6.97778908 37.6267207,10.7703748 Z M21.545744,2.16586384 C24.2703939,2.16586384 27.2284184,6.66526951 28.5265653,13.748073 C24.5052272,14.5089267 18.5848023,14.5089267 14.5634642,13.748073 C15.8630696,6.66380913 18.8210942,2.16586384 21.545744,2.16586384 L21.545744,2.16586384 Z M14.2367396,15.9181855 C18.4681149,16.7067863 24.6233731,16.7067863 28.8547485,15.9181855 C29.3171221,19.6070848 29.3623385,23.8275595 28.784736,27.6040811 C24.0311848,28.4744627 19.0500931,28.4759231 14.2950833,27.6055415 C13.7802003,24.049536 13.7568628,19.5107003 14.2367396,15.9181855 L14.2367396,15.9181855 Z M4.38249213,12.67616 C6.02340811,13.6151791 8.63720495,14.7133788 12.0823992,15.4961381 C11.5937709,19.1339244 11.5762678,23.4580854 12.0342657,27.1177773 C8.65762524,26.2926672 5.39475497,25.0206833 2.3317118,23.3193501 C1.99331846,19.7502013 2.64239189,16.0656831 4.38249213,12.67616 Z M2.77804094,26.0312606 C5.83233256,27.5661114 9.05436226,28.7052015 12.3741176,29.4412289 C13.180719,34.020955 14.6699414,37.7901747 16.5865313,40.1924864 C9.80553713,38.5305833 4.21329546,32.5693454 2.77804094,26.0312606 L2.77804094,26.0312606 Z M21.3838403,40.8438123 C18.7846294,40.6758695 16.0133046,36.4787608 14.6874445,29.8851819 C19.1872008,30.6314319 23.8649053,30.6314319 28.3646616,29.8866423 C28.0189753,31.5441643 27.5989008,33.1856223 27.0329671,34.7876502 C26.8156369,35.3528141 27.0971451,35.9866155 27.6601616,36.2027505 C28.2231781,36.4188856 28.8576656,36.1384942 29.0749959,35.5747906 C29.7838716,33.5740812 30.3060475,31.519338 30.6911158,29.4397685 C34.0385844,28.6964392 37.2897859,27.5442058 40.367415,25.9889098 C38.4741626,34.692726 29.9107691,41.1169018 21.3838403,40.8438123 L21.3838403,40.8438123 Z M31.0426364,27.1163169 C31.5502265,23.3354142 31.4845898,19.1894185 31.0076302,15.4961381 C34.476162,14.7089977 37.100169,13.6005754 38.7381678,12.6586356 C40.4097142,15.9225667 41.1317172,19.611466 40.7933239,23.291603 C37.7171534,25.0075399 34.43678,26.2868257 31.0426364,27.1163169 Z" id="Shape"></path>
                </g>
            </g>
        </g>
    </g>
</svg>

<svg xmlns="http://www.w3.org/2000/svg" xmlns:xlink="http://www.w3.org/1999/xlink" width="66" height="66"><defs><linearGradient id="c" x1="14.816%" x2="88.322%" y1="6.587%" y2="85.249%"><stop offset="0%" stop-color="#6366F1"/><stop offset="100%"/></linearGradient><filter id="b" width="116.7%" height="116.7%" x="-8.3%" y="-6.7%" filterUnits="objectBoundingBox"><feMorphology in="SourceAlpha" operator="dilate" radius=".5" result="shadowSpreadOuter1"/><feOffset dy="1" in="shadowSpreadOuter1" result="shadowOffsetOuter1"/><feGaussianBlur in="shadowOffsetOuter1" result="shadowBlurOuter1" stdDeviation="1"/><feColorMatrix in="shadowBlurOuter1" values="0 0 0 0 0 0 0 0 0 0 0 0 0 0 0 0 0 0 0.11324369 0"/></filter><circle id="a" cx="30" cy="30" r="30"/></defs><g fill="none" fill-rule="evenodd"><g transform="translate(3 2)"><use xlink:href="#a" fill="#000" filter="url(#b)"/><use xlink:href="#a" fill="#F1F5F9"/></g><path fill="url(#c)" fill-rule="nonzero" d="M40.092 10.662C33.662-.718 17.934-3.495 7.98 4.797c-.508.491-1.338.875-1.35 1.668a1.095 1.095 0 0 0 1.09 1.098 1.09 1.09 0 0 0 .743-.296 19.281 19.281 0 0 1 8.149-4.46C14.72 5.161 13.24 8.84 12.419 13.32c-3.993-.923-6.598-2.244-7.876-3.122-.42-.259-1.034-.205-1.362.188-8.853 13.902 1.9 32.926 18.365 32.67 16.479.177 26.949-18.456 18.546-32.394Zm-2.465.108c-1.418.812-3.787 1.813-6.955 2.549-.821-4.487-2.306-8.17-4.202-10.524 4.478 1.107 8.708 4.183 11.157 7.975ZM21.546 2.166c2.724 0 5.682 4.5 6.98 11.582-4.02.76-9.941.76-13.963 0 1.3-7.084 4.258-11.582 6.983-11.582Zm-7.31 13.752c4.232.789 10.387.789 14.619 0 .462 3.69.507 7.91-.07 11.686a40.53 40.53 0 0 1-14.49.002c-.515-3.556-.538-8.095-.058-11.688Zm-9.854-3.242c1.641.94 4.255 2.037 7.7 2.82-.488 3.638-.506 7.962-.048 11.622a39.077 39.077 0 0 1-9.702-3.799 19.254 19.254 0 0 1 2.05-10.643ZM2.778 26.031a41.235 41.235 0 0 0 9.596 3.41c.807 4.58 2.296 8.35 4.213 10.751-6.781-1.661-12.374-7.623-13.809-14.16Zm18.606 14.813c-2.6-.168-5.37-4.365-6.697-10.959a42.1 42.1 0 0 0 13.678.002c-.346 1.657-.766 3.299-1.332 4.9a1.095 1.095 0 1 0 2.042.788c.709-2 1.231-4.056 1.616-6.135a41.286 41.286 0 0 0 9.676-3.451c-1.893 8.704-10.456 15.128-18.983 14.855Zm9.659-13.728c.507-3.78.442-7.927-.035-11.62 3.468-.787 6.092-1.895 7.73-2.837a19.433 19.433 0 0 1 2.055 10.633 39.023 39.023 0 0 1-9.75 3.824Z" transform="translate(11.47 10.47)"/></g></svg>
